X:100
M:2/4
L:1/8
K:A
| AF EF | AB c2 | eB cA | BA F2 | 
| af ef | af ec | ec ed | BA F2 | 

